X:14963
T:Schottisch
Z:abc transcription Simon Wascher
N:please mail errors to: simon.wascher@chello.at
M:2/4
L:1/16
K:D
A2|dcBA F3A|dcBA G3A|cBAG c3d|B3c A2FA|
dcBA F3A|dcBA G3A|cBAG cdcB|eABcd2:|
K:G
|:G2|DEFG A2A2|DFGA B2B2|d2d2 dcA2|c2c2 cBG2|
DEFG A2A2|DFGA B2B2|d2d2 dcBA|G2GGG2:|
